X:1
T:Ben accorta, ben sagace
T:Giovanni Battista Chinelli
T:Notes : Original Clefs : C1, F4 Editorial accidentals above the staff Figures in BC are notated in original print Original note values have neen halved in 6/4 measures Dotted brackets indicate black notes m19 in S : first "E" notated as "F" in original print Music collected by Francesco Tonalli   
T:Source : Arie a voce sola de diversi auttori---Venetia---A.Vincenti---1656. Editor : André Vierendeels (06/04/16).
T:Ben accorta, ben sagace
T:©
T:©
T:©
T:©
C:Giovanni Battista Chinelli
Z:©
%%score 1 2
L:1/8
Q:1/4=90
M:4/4
K:C
V:1 treble nm="Soprano" snm="S"
V:2 bass nm="BC" snm="BC"
V:1
 z2 EF GGAB | ccdc B>A AB | GEAG ^FDdc | BG g>f ed/c/ B2- | BAAB G2 G2 ::[M:6/4] z4 G2 A3 B c2 | %6
w: Ben ac- co- tra, ben sa-|ga- ce e co- lei che de- gli'A-|man- ti fa scher- ni- re'i fin- ti|pian- ti fa spez- * * * zar|_ l'ar- dor men- da- ce,|per huo- mo bu-|
w: Cie- co'A- mor gia non m'ap-|pa- na'il cor quel- le'a- bo- li- sce|che mi pre- ga'e mi tra- di- sce|che se giu- * * * * *|* r'all' hor m'a- gan- .na,|o- gni'huo- mo cru-|
w: |||||* La dol- cez-|
 B2 G2 d2 e2 ^f2 g2 | ^f2 d2 g2 e2 d3 c | B2 B2 A2 G2 A2 E2 | ^F2 G2 A2 B2 c2 d2 | %10
w: giar- do non pe- no, non|ar- do bel- lez- za men-|ti- ta mi cred' o- gni|Don- na fa lie- ve fe-|
w: de- le si van- to fi-|de- le ma stol- to quel|co- re che cie- co in-|sen- sa- to de fe- de'al|
w: ze di Cu- pi- do vi|fia tos- c'o tra- di- to-|ri pre- go'il Ciel ch'i vo-|stri'a- mo- re hab- bian sem-|
 G2 G2 c2 A2 de cd | B2 ef de c2 fg ef | d2 gf ed e2 d2 e2 | d6 c6 :: z4 g2 e2 c2 g2 | %15
w: ri- ta non pas- * * * *||* * * * * * sa la|gom- ma.|Fug- gi- te, fu-|
w: suo'ar- do- re che ser- * * *||* * * * * * ve'ah' in-|gra- ta.||
w: pre- mio in- fi- do _ _ _|_ _ _ _ _ _ _ _ _ _|* * * * * * chi fug-|ge, chi||
 e2 d2 c2 B2 B2 d2 | A2 B2 c2 B4 d2 |"^#" d2 e2 f2 g2 g2 ^f2 | e2 e2 ^f2 d4 d2 | %19
w: gi- te gli'a- man- ti, fug-|gi- te, fug- gi fug-|gi- te ch'è fal- sa la|gio- ve _ tu ch'e|
w: ||||
w: ||||
 B2 B2 g2 c2 d2 e2 | e2 d2 e2 c6 :| %21
w: fal- sa ch'e fal- sa la|gio- ven- * tu.|
w: ||
w: ||
V:2
 C,4 C,2 B,,2 |"^-natural" A,,2 ^F,,2 G,,2 F,,2 |"^#" E,2 ^C,2 D,2 ^F,2 | %3
 G,2 B,,2 C,B,,/A,,/ G,^F,/E,/ | D,C, D,2 G,,4 ::[M:6/4] G,,4 B,,2 C,2 D,4 | %6
"^6""^7 6" G,4 F,2 E,6 |"^#" D,4 B,,2 C,2 D,4 |"^-natural" G,4 ^F,2 E,2 ^C,4 | D,6 G,4 F,2 | %10
"^5 6""^5 6" E,6 F,4 F,2 |"^5 6""^5 6" G,6 A,6 | B,2 G,4 C2 F,4 | G,6 C,6 :: %14
 C,2 C,2 C,2 C,2 C,2 C,2 | C2 B,2 A,2 G,4 B,,2 | C,2 D,4 G,4 G,2 | G,4 ^F,2 E,4 F,2 | %18
"^#" G,2 A,4 D,2 E,2 ^F,2 |"^-natural" G,4 E,2 A,4 E,2 | F,2 G,4 C,6 :| %21

